X:324
%%etbk:tnset id:99,pos:1,rep:3x,ant:
%%etbk:wsite http://www.thesession.org/tunes/display/232
%%etbk:pldat 2016-06-20T18:34,2016-05-05T14:20,2016-05-03T15:30,2016-03-11T16:25,2016-03-09T17:00,2016-03-08T17:27,2016-03-07T18:33,2016-02-10T16:36,2015-11-03T17:09,2015-10-28T16:59,2015-10-26T19:04,2015-10-22T18:34,2015-10-19T18:21,2015-10-06T16:34,2015-06-24T19:06,2015-05-28T19:11,2015-04-23T18:22,2015-03-13T18:27,2015-03-10T16:50,2015-03-06T16:49,2015-02-18T17:46,2015-02-14T12:39,2015-01-28T17:29,2014-11-06T18:28,2014-11-04T16:16,2014-11-02T15:40,2014-11-01T13:52,2014-08-21T19:41,2014-08-18T19:29,2014-06-25T16:14,2014-06-10T18:19,2014-03-06T18:15,2014-03-03T18:35,2014-02-27T18:04,2014-02-23T11:35,2013-10-30T15:51,2013-10-28T19:12,2013-10-26T16:25,2013-10-15T18:20,2013-10-11T18:39,2013-10-08T16:16
T: Walls Of Liscarrol, The
Z: Piano Box Version by Martin Fleischmann
H: Created 2013-02-19 /  Last Modified 2013-02-19
M: 6/8
L: 1/8
R: jig
K: Dmix
|: "dm"!5!dc!2!A {c}!2!A!1!G!2!E | !4!G!2!E!1!D D2D | "am"!4!G!2!EE !5!c!2!EE | !1!GA!3!B !1!cd!3!e |
"dm"!5!dc!2!A {c}!2!A!1!G!2!E | !4!G!2!E!1!D D2D | "am"!4!G!2!EE !5!c!2!EE |"dm" !1!DED D3:|
|: "dm"!3!d!1!Ad !4!e!2!c!1!A | !3!d!1!Ad !4!e!2!c!1!A | "am"!4!G!2!EE !5!c!2!EE | !1!GA!3!B !1!cd!3!e |
|1 "dm"!3!d{e}dd !4!ecA | !3!d{e}dd !4!ecA | "am"!4!G!2!EE !5!c!2!EE | "dm"!1!DED D3 :|
|2 "dm"!5!dc!2!A {c}!2!A!1!G!2!E | !4!G!2!E!1!D D2D | "am"!4!G!2!EE !5!c!2!EE | "dm"!1!DED D3 ||


